X:1
T:Title
%%score { ( 1 3 4 ) | ( 2 5 ) }
L:1/8
M:4/4
K:G
V:1 treble nm="Grand Piano"
V:3 treble 
V:4 treble 
V:2 bass 
V:5 bass 
V:1
 z4 z2 z[Q:1/4=90] [B,D] | [B,E]>[B,D] [B,D][B,D] [B,E][B,F][B,G][B,A] | %2
 [GB]>[GB] [FB][EB] z2 z B | [DAc]>[DAc] [DAc][DAc] [DAc][D^GB][DAc][D_B^c] | %4
 [Bd]>[Bd] [Ad][Gd] z2[K:bass] z D | [B,E]>[B,D] [B,D][K:treble][B,D] [B,E][B,F][B,G][B,A] | %6
 z4 B4 | [DFB][DFA][D=F^G][D^FA] [DFd]F=GA |[M:5/4] [^GB][GB] [E=G^c]>[EGc] [Dd]2- [D=cd]4 | %9
[M:4/4] [GBe]2 [GBd]2 [B,D]2 [B,D]2 | [EB]2 [EA]2 z2 A,[A,CEG] | %11
 [CDF]>[CDF] [CDG][CDG] [B,D^G][B,DG][CDA][CD] | [CFA]>[CFA] [CF_B][CFB] [B,DG=B]4 | %13
 [GBe]2 [GBd]2 G2- [B,=FG]2 | %14
[M:19/16] [EB]-<[EB][EA]-<[EA][EAe]/-[EAe]/-[EAe]/-[EAe]/-[EAe]/-[EAe]-<[EAe][Ge] | %15
[M:4/4] [Ge][Gd][Dc][DB] [^CB][CA][CE][CA] |[M:7/8] [CG][CF][DFB]>[CFA] [B,DG]3 |] %17
V:2
 z4 z2 z [G,,D,] | [G,,D,]2 [D,,D,]2 [G,,D,]2 [D,,D,]2 | [G,,D,]2 [D,,D,]2 [G,,D,]2 z [DG] | %3
 [A,,D,]2 [D,,D,]2 [A,,D,]2 [D,,D,]2 | [G,,D,]2 [D,,D,]2 [G,,D,]2 z B, | %5
 [G,,D,]2 [D,,D,]2 [G,,D,]2 [D,,D,]2 | [G,,D,]2 [D,,D,]2 [G,,D,]2 z[K:treble] B | %7
 [A,,F,]2 [A,,A,]2 [A,,A,][A,D][G,D][F,D] |[M:5/4] [E,E][E,E] A,,>A,, z2 F4 | %9
[M:4/4] [G,,D,G,]2 [G,,D,G,]2 [G,,D,G,]2 [G,,D,G,]2 | [C,A,C]2 [C,A,C]2 [C,A,]2 C,C, | %11
 [D,,D,]2 [E,,E,][E,,E,] [=F,,=F,][F,,F,][^F,,^F,][F,,F,] | %12
 [D,,D,]2 [D,,D,][D,,D,] [G,,G,]D,B,,D, | [G,,D,G,]2 [G,,D,G,]2 [G,,D,G,]2 [G,,D,G,]2 | %14
[M:19/16] [C,A,C]-<[C,A,C][C,A,C]-<[C,A,C][C,A,C]/-[C,A,C]/-[C,A,C]/-[C,A,C]/-[C,A,C]/-[C,A,C]-<[C,A,C][^C,_B,] | %15
[M:4/4] [D,B,][D,B,][E,^G,][E,G,] [A,,A,][A,,A,][A,,A,][A,,A,] | %16
[M:7/8] [D,A,][D,A,][D,,D,]>[D,,D,] [G,,G,]3 |] %17
V:3
 x8 | x8 | z4 [DB]4 | x8 | z4 [Dd]4[K:bass] | x3[K:treble] x5 | [GB]>[GB] [FB][EB] D2 [F,B,D]2 | %7
 x8 |[M:5/4] z4 F2 z4 |[M:4/4] z4 G4 | z4 [CE]4 | x8 | x8 | z4 D2 z2 |[M:19/16] x19/2 |[M:4/4] x8 | %16
[M:7/8] x7 |] %17
V:4
 x8 | x8 | z4 z2 D,2 | x8 | z4 z2[K:bass] D,2 | x3[K:treble] x5 | x8 | x8 |[M:5/4] x10 | %9
[M:4/4] x8 | x8 | x8 | x8 | x8 |[M:19/16] x19/2 |[M:4/4] x8 |[M:7/8] x7 |] %17
V:5
 x8 | x8 | z4 z2 D,,2 | x8 | z4 z2 D,,2 | x8 | z4 z2 ^G,,2[K:treble] | x8 |[M:5/4] z4 D,6 | %9
[M:4/4] x8 | x8 | x8 | x8 | x8 |[M:19/16] x19/2 |[M:4/4] x8 |[M:7/8] x7 |] %17

